X:1
T:76
L:1/8
Q:1/4=100
M:3/4
K:C
V:1 treble nm="Piano" snm="Pno."
V:1
!p! z2 G2 !>!c2- | c4 B2 | z2 G2 !>!e2- | e4 d2 | !breath!c2 E2 !>!G2- | G4 F2 | %6
 !breath!E2 G2 !>!c2- | c4 B2 | !breath!c2 d2 !>!e2- | e4 d2 | !breath!c2 B2 !>!d2- | d4 c2 | %12
 !breath!B2 A2 !>!c2- | c2 B2 A2 | !breath!G2!>(! (A4!>)! | G4) z2 | z2 G2 !>!c2- | c4 B2 | %18
 z2 G2 !>!e2- | e4 d2 | !breath!c2 E2 !>!G2- | G4 !>!F2- | !breath!F4 D2 | C4 z2 |] %24

